X:009
T:Barmaid (reel), The 
B:CRE3.201	(CailÃÂÃÂÃÂÃÂ­n an ÃÂÃÂÃÂ¢ÃÂÃÂsta)
F:file ID: cre.3/009barm
N:This is (not surprisingly) a version of "Maid Behind the Bar"
R:reel % A-B-A
L:1/8
Q:180
M:C
K:C
EF|G3A GEDE|CEE2 GAcd|eddc AGAc|dcec dcAc|
GEE2 FDED|CEE2 GAcd|eddc (3ABc GE|1 FEDE CD:|2 FEDF EC||
C2|:(3efg fg ecc2|eaga ecc2|Addc defg|afge fedf|
ecc2 GcEc|AFF2 A,CG,C|GABc defg|1 efdB cegf:|2 efdB c4|]

%%%

